teeny/solid/bag.svg

<svg width="15" height="15" viewBox="0 0 15 15" fill="none" xmlns="http://www.w3.org/2000/svg">
<path d="M5 3.5C5 2.11929 6.11929 1 7.5 1C8.88071 1 10 2.11929 10 3.5V4H11V3.5C11 1.567 9.433 0 7.5 0C5.567 0 4 1.567 4 3.5V4H5V3.5Z" fill="black"/>
<path d="M1.90432 6.33435C1.98872 5.5747 2.63082 5 3.39514 5H11.6051C12.3694 5 13.0115 5.5747 13.0959 6.33435L13.8737 13.3344C13.9724 14.2229 13.2769 15 12.3828 15H2.61737C1.72335 15 1.02781 14.2229 1.12654 13.3344L1.90432 6.33435Z" fill="black"/>
</svg>

<svg viewBox="0 0 15 15" xmlns="http://www.w3.org/2000/svg"><g><path d="M5 3.5C5 2.11 6.11 1 7.5 1 8.88 1 10 2.11 10 3.5V4h1v-.5C11 1.567 9.43 0 7.5 0 5.56 0 4 1.567 4 3.5V4h1v-.5Z"/><path d="M1.9 6.33c.08-.76.72-1.34 1.49-1.34h8.2c.76 0 1.4.57 1.49 1.33l.77 7c.09.88-.6 1.66-1.5 1.66H2.58c-.9 0-1.59-.78-1.5-1.67l.77-7.01Z"/></g></svg>
